X:162
T: Braes of Busbie
N: O'Farrell's Pocket Companion v.2 (Sky ed. p.82-3)
D: O'Sullivan Meets O'Farrell track 7b
M: C
L: 1/8
R: strathspey
Q: 220
K: Am
A|E>AAB cBAG|D>GGA Bd c/B/A/G/|A>Bcd e>dce|d/c/B/A/ GB cAA :|
P:2
B|c>dec gcec|Bdge d/c/B/A/ G>B|c>dec gcec|dBGB cAA :|
P:3
e|a2 ea ea/b/ c'a|g2 dg dg/a/ bg|a2 ea e>dc>e|d/c/B/A/ GB cAA :|
P:4
z|c<eAB Ac/d/ ec|B<dGB GB/c/ dB|1 c<eAc Ac/d/ ec|dBGB cAA :|
[2 Acea gece|d/c/B/A/ GB cA A2 ||
